Yosa-Max-Dark/places/16x16/folder-activities.svg

<?xml version="1.0" encoding="UTF-8"?>
<svg id="svg5" version="1.1" viewBox="0 0 16 16" xmlns="http://www.w3.org/2000/svg">
 <defs id="defs3051">
  <style id="current-color-scheme" type="text/css">.ColorScheme-Text {
        color:#dfdfdf;
      }</style>
 </defs>
 <path id="path2994" class="ColorScheme-Text" d="m5 2c-0.5522847 0-1 0.4477153-1 1s0.4477153 1 1 1 1-0.4477153 1-1-0.4477153-1-1-1zm5 0-1 1 3 3-3 3 1 1 4-4-4-4zm-6.5 4c-0.8284271 0-1.5 0.6715729-1.5 1.5s0.6715729 1.5 1.5 1.5 1.5-0.6715729 1.5-1.5-0.6715729-1.5-1.5-1.5zm3 5c-0.8284271 0-1.5 0.671573-1.5 1.5s0.6715729 1.5 1.5 1.5 1.5-0.671573 1.5-1.5-0.6715729-1.5-1.5-1.5z" style="fill:#dfdfdf"/>
</svg>

<?xml version="1.0" encoding="UTF-8" standalone="no"?>
<svg
   xmlns:dc="http://purl.org/dc/elements/1.1/"
   xmlns:cc="http://creativecommons.org/ns#"
   xmlns:rdf="http://www.w3.org/1999/02/22-rdf-syntax-ns#"
   xmlns:svg="http://www.w3.org/2000/svg"
   xmlns="http://www.w3.org/2000/svg"
   xmlns:sodipodi="http://sodipodi.sourceforge.net/DTD/sodipodi-0.dtd"
   xmlns:inkscape="http://www.inkscape.org/namespaces/inkscape"
   viewBox="0 0 16 16"
   version="1.1"
   id="svg5"
   sodipodi:docname="folder-activities.svg"
   inkscape:version="0.92.2 5c3e80d, 2017-08-06">
  <metadata
     id="metadata9">
    <rdf:RDF>
      <cc:Work
         rdf:about="">
        <dc:format>image/svg+xml</dc:format>
        <dc:type
           rdf:resource="http://purl.org/dc/dcmitype/StillImage" />
      </cc:Work>
    </rdf:RDF>
  </metadata>
  <sodipodi:namedview
     pagecolor="#ffffff"
     bordercolor="#666666"
     borderopacity="1"
     objecttolerance="10"
     gridtolerance="10"
     guidetolerance="10"
     inkscape:pageopacity="0"
     inkscape:pageshadow="2"
     inkscape:window-width="760"
     inkscape:window-height="480"
     id="namedview7"
     showgrid="false"
     inkscape:zoom="18.264648"
     inkscape:cx="0.66342298"
     inkscape:cy="8"
     inkscape:window-x="0"
     inkscape:window-y="0"
     inkscape:window-maximized="0"
     inkscape:current-layer="svg5" />
  <defs
     id="defs3051">
    <style
       type="text/css"
       id="current-color-scheme">
      .ColorScheme-Text {
        color:#dfdfdf;
      }
      </style>
  </defs>
  <path
     style="fill:#dfdfdf;fill-opacity:1;stroke:none"
     d="M 5 2 C 4.4477153 2 4 2.4477153 4 3 C 4 3.5522847 4.4477153 4 5 4 C 5.5522847 4 6 3.5522847 6 3 C 6 2.4477153 5.5522847 2 5 2 z M 10 2 L 9 3 L 12 6 L 9 9 L 10 10 L 14 6 L 10 2 z M 3.5 6 C 2.6715729 6 2 6.6715729 2 7.5 C 2 8.3284271 2.6715729 9 3.5 9 C 4.3284271 9 5 8.3284271 5 7.5 C 5 6.6715729 4.3284271 6 3.5 6 z M 6.5 11 C 5.6715729 11 5 11.671573 5 12.5 C 5 13.328427 5.6715729 14 6.5 14 C 7.3284271 14 8 13.328427 8 12.5 C 8 11.671573 7.3284271 11 6.5 11 z "
     id="path2994"
     class="ColorScheme-Text" />
</svg>
